X: 1
T: Grasshopper Sittin' on a Sweet Potato Vine
M: C|
L: 1/8
R: reel
K:D 
FG |"D"ABAG FAde|fefe d3A|"G"BdBA GABc|de dB "D"A2 FG|
"D"ABAG FAde|fafe d3A|"G"Bc cA "A"BAcA|"D"d3 c d2:|
|:cd|"A"edcd e2 fg|"D" aefe d3 A| "G"BdBA GABc|dedB "D"A2cd|
"A"edcd e2 fg| "D"aefe d3 A|"G"Bc cA "A"BAcA|1"D"d3 c d2:|]

